packages/ui-solid/icons/group_24.svg

<svg width="24" height="24" viewBox="0 0 24 24" fill="none" xmlns="http://www.w3.org/2000/svg">
<path fill-rule="evenodd" clip-rule="evenodd" d="M7.9982 5.12657C6.66346 5.12657 5.54702 6.23897 5.54702 7.65412C5.54702 9.06927 6.66346 10.1817 7.9982 10.1817C9.33294 10.1817 10.4494 9.06927 10.4494 7.65412C10.4494 6.23897 9.33294 5.12657 7.9982 5.12657ZM3.74702 7.65412C3.74702 5.2833 5.63133 3.32657 7.9982 3.32657C10.3651 3.32657 12.2494 5.2833 12.2494 7.65412C12.2494 10.0249 10.3651 11.9817 7.9982 11.9817C5.63133 11.9817 3.74702 10.0249 3.74702 7.65412ZM16.2473 7.98149C15.4815 7.98149 14.8243 8.62336 14.8243 9.46059C14.8243 10.2978 15.4815 10.9397 16.2473 10.9397C17.0132 10.9397 17.6704 10.2978 17.6704 9.46059C17.6704 8.62336 17.0132 7.98149 16.2473 7.98149ZM13.0243 9.46059C13.0243 7.66994 14.4472 6.18149 16.2473 6.18149C18.0475 6.18149 19.4704 7.66994 19.4704 9.46059C19.4704 11.2512 18.0475 12.7397 16.2473 12.7397C14.4472 12.7397 13.0243 11.2512 13.0243 9.46059ZM3.75991 17.4363C2.9615 18.1734 2.65964 19.0374 2.61046 19.5404C2.56209 20.0351 2.12185 20.3969 1.62715 20.3485C1.13246 20.3002 0.770635 19.8599 0.819003 19.3652C0.909459 18.4401 1.4035 17.1619 2.539 16.1137C3.6943 15.0473 5.45809 14.2684 7.9982 14.2684C10.5383 14.2684 12.3021 15.0473 13.4574 16.1137C14.5929 17.1619 15.0869 18.4401 15.1774 19.3652C15.2258 19.8599 14.8639 20.3002 14.3692 20.3485C13.8745 20.3969 13.4343 20.0351 13.3859 19.5404C13.3368 19.0374 13.0349 18.1734 12.2365 17.4363C11.4579 16.7176 10.1497 16.0684 7.9982 16.0684C5.84665 16.0684 4.53853 16.7176 3.75991 17.4363ZM15.1038 15.1684C15.1038 14.6713 15.5067 14.2684 16.0038 14.2684C18.5439 14.2684 20.3077 15.0473 21.463 16.1137C22.5985 17.1619 23.0925 18.4401 23.183 19.3652C23.2314 19.8599 22.8695 20.3002 22.3748 20.3485C21.8801 20.3969 21.4399 20.0351 21.3915 19.5404C21.3424 19.0374 21.0405 18.1734 20.2421 17.4363C19.4635 16.7176 18.1554 16.0684 16.0038 16.0684C15.5067 16.0684 15.1038 15.6654 15.1038 15.1684Z" fill="#007AFF"/>
</svg>

<svg xmlns="http://www.w3.org/2000/svg" width="24" height="24" fill="none"><path fill="currentColor" fill-rule="evenodd" d="M7.998 5.127c-1.335 0-2.451 1.112-2.451 2.527s1.116 2.528 2.451 2.528 2.451-1.113 2.451-2.528S9.333 5.127 8 5.127M3.747 7.654c0-2.37 1.884-4.327 4.251-4.327s4.251 1.956 4.251 4.327-1.884 4.328-4.25 4.328c-2.368 0-4.252-1.957-4.252-4.328m12.5.327c-.765 0-1.423.642-1.423 1.48 0 .837.658 1.479 1.423 1.479.766 0 1.423-.642 1.423-1.48 0-.837-.657-1.479-1.423-1.479m-3.223 1.48c0-1.791 1.423-3.28 3.223-3.28s3.223 1.489 3.223 3.28-1.422 3.279-3.223 3.279-3.223-1.489-3.223-3.28M3.76 17.436c-.798.737-1.1 1.601-1.15 2.104a.9.9 0 1 1-1.791-.175c.09-.925.585-2.203 1.72-3.251 1.155-1.067 2.92-1.846 5.46-1.846s4.303.78 5.458 1.846c1.136 1.048 1.63 2.326 1.72 3.251a.9.9 0 1 1-1.791.175c-.05-.503-.351-1.367-1.15-2.104-.778-.718-2.086-1.368-4.238-1.368-2.151 0-3.46.65-4.238 1.368m11.344-2.268a.9.9 0 0 1 .9-.9c2.54 0 4.304.78 5.459 1.846 1.136 1.048 1.63 2.326 1.72 3.251a.9.9 0 1 1-1.791.175c-.05-.503-.351-1.367-1.15-2.104-.779-.718-2.087-1.368-4.238-1.368a.9.9 0 0 1-.9-.9" clip-rule="evenodd"/></svg>
